icons/lines/dropbox.svg

<svg xmlns="http://www.w3.org/2000/svg" width="24" height="24" viewBox="0 0 24 24" fill="none" stroke="currentColor" stroke-width="2" stroke-linecap="round" stroke-linejoin="round">
  <path d="m12 14 4.4 3 5.6-4-4.4-3z" />
  <path d="m12 14-4.4 3L2 13l4.4-3z" />
  <path d="m12 5 4.4-3L22 6l-4.4 3z" />
  <path d="M12 5 7.6 2 2 6l4.4 3z" />
  <path d="M19 15.5v3.3l-6.6 3c-.3.1-.6.1-.8 0l-6.6-3v-3.3" />
</svg>

<svg xmlns="http://www.w3.org/2000/svg" width="24" height="24" viewBox="0 0 24 24" fill="none" stroke="currentColor" stroke-width="2" stroke-linecap="round" stroke-linejoin="round" >
  <path d="M12 5L7.6 2L2 6L6.4 9L12 5Z" stroke-miterlimit="10"/>
  <path d="M12 5L16.4 2L22 6L17.6 9L12 5Z" stroke-miterlimit="10"/>
  <path d="M12 14L7.6 17L2 13L6.4 10L12 14Z" stroke-miterlimit="10"/>
  <path d="M12 14L16.4 17L22 13L17.6 10L12 14Z" stroke-miterlimit="10"/>
  <path d="M19 15.5V18.8L12.4 21.8C12.1 21.9 11.8 21.9 11.6 21.8L5 18.8V15.5" stroke-miterlimit="10"/>
  </svg>
